icons/arrow-right.svg

<svg xmlns="http://www.w3.org/2000/svg" width="24" height="24" viewBox="0 0 24 24">
  <path d="M14.9560452,5.55285036 L15.0502525,5.63603897 L20.7071068,11.2928932 C20.7341207,11.3199072 20.7595963,11.3484595 20.7833908,11.3784075 L20.7071068,11.2928932 C20.7465715,11.332358 20.7820481,11.3743006 20.8135366,11.4182204 C20.8274737,11.4377852 20.8410808,11.4583066 20.8539326,11.4793398 C20.8622728,11.4928304 20.8701389,11.5064305 20.8776583,11.5201698 C20.8868931,11.5371537 20.8959557,11.5549095 20.9044938,11.5729619 C20.9140881,11.5932325 20.9226898,11.613165 20.930613,11.6333026 C20.9375547,11.6508514 20.9440997,11.6689468 20.9501291,11.6872762 C20.9551048,11.7025958 20.9598259,11.7182588 20.9641549,11.734007 C20.9701664,11.7555635 20.9753602,11.7772539 20.9798348,11.7992059 C20.9832978,11.8166247 20.9863719,11.834051 20.9889822,11.8515331 C20.9920941,11.8718856 20.994564,11.8929426 20.9963697,11.914189 C20.9978612,11.9321496 20.9988858,11.9495547 20.9994578,11.9669718 C20.9998151,11.9775981 21,11.9887775 21,12 L20.9994578,12.0330282 C20.9988882,12.0503712 20.9978699,12.0677023 20.9964029,12.0850024 L21,12 C21,12.0506203 20.9962388,12.1003621 20.9889807,12.1489612 C20.9863441,12.1661068 20.9832818,12.1834538 20.9797599,12.2007258 C20.9753602,12.2227461 20.9701664,12.2444365 20.964279,12.2658396 C20.9599023,12.2814633 20.9552713,12.2968513 20.9502619,12.3121425 C20.9438775,12.3317977 20.9366843,12.3515792 20.928896,12.3710585 C20.9218036,12.3887956 20.914321,12.4060985 20.9063266,12.4232215 C20.897529,12.4419547 20.8881407,12.4604898 20.8782035,12.4786822 C20.8701866,12.4935488 20.8613648,12.5087703 20.8521085,12.5238 C20.8384932,12.5456983 20.8245831,12.5664533 20.8099369,12.5866395 C20.8026914,12.5967524 20.7949756,12.606968 20.7870379,12.6170661 C20.7848777,12.6197272 20.7826022,12.6225945 20.7803112,12.625449 L20.7071068,12.7071068 L15.0502525,18.363961 C14.6597282,18.7544853 14.0265633,18.7544853 13.636039,18.363961 C13.275555,18.0034771 13.2478255,17.436246 13.5528504,17.0439548 L13.636039,16.9497475 L17.585,12.9991458 L4,13 C3.44771525,13 3,12.5522847 3,12 C3,11.4871642 3.38604019,11.0644928 3.88337887,11.0067277 L4,11 L17.585,10.9991458 L13.636039,7.05025253 C13.2455147,6.65972824 13.2455147,6.02656326 13.636039,5.63603897 C13.9965229,5.27555501 14.563754,5.24782547 14.9560452,5.55285036 Z"/>
</svg>

<svg xmlns="http://www.w3.org/2000/svg" viewBox="0 0 24 24">
  <path d="m14.96 5.55.09.09 5.66 5.65a1 1 0 0 1 .07.09l-.07-.09A1 1 0 0 1 21 12v.03a1 1 0 0 1 0 .06V12a1 1 0 0 1-.21.62h-.01l-.07.09-5.66 5.65a1 1 0 0 1-1.5-1.32l.09-.09L17.59 13H4a1 1 0 0 1-.12-2H17.6l-3.95-3.95a1 1 0 0 1 1.32-1.5z"/>
</svg>
